icon-svg/quatt.svg

<svg xmlns="http://www.w3.org/2000/svg" fill="#44739e" viewBox="0 0 24 24"><path d="M10.503 2.082c-2.885.465-5.377 2.073-6.936 4.463-.442.675-.917 1.674-1.125 2.382C2.067 10.159 2 10.567 2 11.992c0 1.131.017 1.39.15 1.99.242 1.074.45 1.665.9 2.54.709 1.398 1.642 2.505 2.901 3.447 1.518 1.141 3.068 1.748 4.977 1.957.692.075 9.003.108 9.003.025 0-.1-.584-.784-1.042-1.216-.676-.633-1.551-1.241-2.434-1.691-1.284-.649-2.359-.924-4.002-1.032-1.634-.109-1.983-.167-2.942-.566-.792-.325-1.709-1.059-2.276-1.799-1.434-1.874-1.667-4.264-.625-6.329.641-1.266 1.467-2.074 2.784-2.74.742-.366 1.3-.499 2.309-.541 1.875-.075 3.218.441 4.51 1.74.875.875 1.425 1.875 1.659 3.015.141.7.133 1.765-.025 2.482-.134.608-.559 1.582-.917 2.098-.317.466-.951 1.108-1.409 1.449-.467.341-.483.316.242.583.8.283 1.75.767 2.501 1.258l.708.465.259-.249c.808-.775 1.8-2.374 2.192-3.506.683-1.998.758-3.872.233-5.946-.684-2.714-2.692-5.171-5.277-6.429-.641-.316-1.741-.682-2.525-.857-.709-.15-2.61-.192-3.368-.067z"/></svg>

<?xml version="1.0" encoding="UTF-8"?>

<svg
   fill="#44739e"
   width="24"
   height="24"
   viewBox="0 0 24 24"
   version="1.1"
   xmlns="http://www.w3.org/2000/svg"
   xmlns:svg="http://www.w3.org/2000/svg">

   <path d="M 10.503 2.082 C 7.618 2.547 5.126 4.155 3.567 6.545 C 3.125 7.22 2.65 8.219 2.442 8.927 C 2.067 10.159 2 10.567 2 11.992 C 2 13.123 2.017 13.382 2.15 13.982 C 2.392 15.056 2.6 15.647 3.05 16.522 C 3.759 17.92 4.692 19.027 5.951 19.969 C 7.469 21.11 9.019 21.717 10.928 21.926 C 11.62 22.001 19.931 22.034 19.931 21.951 C 19.931 21.851 19.347 21.167 18.889 20.735 C 18.213 20.102 17.338 19.494 16.455 19.044 C 15.171 18.395 14.096 18.12 12.453 18.012 C 10.819 17.903 10.47 17.845 9.511 17.446 C 8.719 17.121 7.802 16.387 7.235 15.647 C 5.801 13.773 5.568 11.383 6.61 9.318 C 7.251 8.052 8.077 7.244 9.394 6.578 C 10.136 6.212 10.694 6.079 11.703 6.037 C 13.578 5.962 14.921 6.478 16.213 7.777 C 17.088 8.652 17.638 9.652 17.872 10.792 C 18.013 11.492 18.005 12.557 17.847 13.274 C 17.713 13.882 17.288 14.856 16.93 15.372 C 16.613 15.838 15.979 16.48 15.521 16.821 C 15.054 17.162 15.038 17.137 15.763 17.404 C 16.563 17.687 17.513 18.171 18.264 18.662 L 18.972 19.127 L 19.231 18.878 C 20.039 18.103 21.031 16.504 21.423 15.372 C 22.106 13.374 22.181 11.5 21.656 9.426 C 20.972 6.712 18.964 4.255 16.379 2.997 C 15.738 2.681 14.638 2.315 13.854 2.14 C 13.145 1.99 11.244 1.948 10.486 2.073 L 10.503 2.082 Z"/>
</svg>
